img/logo_yippie.svg

<?xml version="1.0" encoding="UTF-8" standalone="no"?>
<svg width="121px" height="58px" viewBox="0 0 121 58" version="1.1" xmlns="http://www.w3.org/2000/svg" xmlns:xlink="http://www.w3.org/1999/xlink" xmlns:sketch="http://www.bohemiancoding.com/sketch/ns">
    <!-- Generator: Sketch 3.5.1 (25234) - http://www.bohemiancoding.com/sketch -->
    <title>Shape</title>
    <desc>Created with Sketch.</desc>
    <defs></defs>
    <g id="Page-1" stroke="none" stroke-width="1" fill="none" fill-rule="evenodd" sketch:type="MSPage">
        <g id="Desktop-HD-Copy-18" sketch:type="MSArtboardGroup" transform="translate(-159.000000, -921.000000)" fill="#FFFFFF">
            <g id="logo-blue" sketch:type="MSLayerGroup" transform="translate(159.000000, 921.000000)">
                <path d="M96.2187356,23.2959731 L89.3173497,24.200565 C89.1313348,21.6613094 90.869968,20.288296 92.747145,20.253704 C94.6271599,20.2240538 96.1805522,21.584843 96.2187356,23.2959731 L96.2187356,23.2959731 Z M50.3904371,22.7063498 C50.0978699,22.2764215 49.7428678,21.8639193 49.2787335,21.5343857 C48.821307,21.2090135 48.2070192,20.9840359 47.6056311,20.9546457 C46.2720512,20.9114709 45.1812452,21.7721076 44.7351706,22.7289776 C44.2483326,23.6941704 44.1791898,24.7145022 44.1791898,25.6895785 C44.2106652,26.6703767 44.3283113,27.6852466 44.8453348,28.6418565 C45.3203049,29.5896233 46.4436183,30.4245112 47.7872601,30.4138475 C48.4425693,30.4021435 49.0898806,30.1987534 49.5916823,29.8564753 C50.0991599,29.5149776 50.4907974,29.0767265 50.7833646,28.6075247 C51.3808827,27.6693812 51.5506439,26.5736233 51.4311919,25.5678565 C51.3143198,24.5402422 50.9660256,23.574009 50.3904371,22.7063498 L50.3904371,22.7063498 Z M68.4640704,22.8899731 C68.1709872,22.460565 67.819855,22.0496233 67.3552047,21.7174888 C66.8970043,21.393157 66.2827164,21.1658386 65.6818443,21.14087 C64.3511023,21.0937937 63.2566844,21.9583318 62.8103518,22.9131211 C62.3219659,23.8762332 62.255919,24.8983857 62.255919,25.873722 C62.2842985,26.8524395 62.4050405,27.8683498 62.920774,28.8241794 C63.3990981,29.7719462 64.5234435,30.6068341 65.8663113,30.5972108 C66.5180085,30.5870673 67.1658358,30.3828969 67.6697015,30.0395785 C68.1761471,29.6980807 68.5672687,29.2632108 68.8588038,28.7919283 C69.4573539,27.8527444 69.6258252,26.7590673 69.5037932,25.752 C69.3866631,24.7220448 69.0448188,23.7563318 68.4640704,22.8899731 L68.4640704,22.8899731 Z M14.8538465,45.1047534 L2.96875693,45.1799193 L0.0750767591,8.96841256 L119.603985,0.109237668 L120.807019,44.4332018 L35.2277697,44.9754888 L18.573629,57.9703498 L14.8538465,45.1047534 Z M35.5636802,34.2532915 L36.2068635,16.9193543 L31.5528785,16.9635695 L31.5410107,34.1999731 L35.5636802,34.2532915 L35.5636802,34.2532915 Z M110.040599,31.2385919 C110.00706,29.629157 108.534678,28.3362511 106.766633,28.3687623 C104.989559,28.3981525 103.576516,29.7363139 103.609539,31.3525112 C103.640757,32.9674081 105.115461,34.2571928 106.887633,34.2259821 C108.659032,34.1937309 110.073881,32.8537489 110.040599,31.2385919 L110.040599,31.2385919 Z M103.190038,10.7393632 L104.509429,26.9224036 L108.139945,26.6685561 L109.667021,9.85973991 L103.190038,10.7393632 L103.190038,10.7393632 Z M85.2355991,29.7287713 C85.8338913,31.2593991 87.0183497,32.5811749 88.4783475,33.3513004 C89.3132217,33.8095785 90.2794158,34.1089417 91.4287868,34.2725381 L91.7071642,34.3079103 C92.3144861,34.3778744 92.8573092,34.4083049 93.3622068,34.3986816 L93.4166439,34.3976413 C93.9202516,34.3976413 94.4733945,34.3594081 95.0255053,34.3089507 C95.4491343,34.272278 95.8688934,34.2244215 96.2829765,34.1508161 C97.1887996,33.9958027 98.0982345,33.7151659 99.0915181,33.2849776 L99.3698955,33.1364664 L99.3505458,29.5076951 L98.5321834,29.8460717 C97.527806,30.2541525 96.5368443,30.5366099 95.5869041,30.6804395 C94.4684925,30.8411749 93.4316077,30.8606816 92.5753198,30.7407803 C91.6669168,30.603713 90.9496887,30.1540179 90.4342132,29.5105561 C90.0632154,29.008843 89.9543412,28.3539372 89.8681706,27.7747175 L100.620143,26.0643677 C100.614725,25.8027175 100.597181,24.0978296 100.568028,23.5703677 C100.515655,22.7170135 100.33222,21.8956502 100.026237,21.1218834 C99.6743305,20.2578655 99.1954904,19.5249327 98.5680448,18.8838117 C97.9411151,18.246852 97.1206887,17.7030045 96.2607889,17.3552646 C94.6883049,16.7209058 92.8438934,16.5682332 90.872806,16.9029686 C89.0271045,17.2111749 87.301371,18.1872915 86.2696461,19.5002242 C85.2768785,20.6981973 84.6927761,22.2613363 84.5717761,24.0242242 C84.45929,25.7889327 84.6945821,28.4036143 85.2355991,29.7287713 L85.2355991,29.7287713 Z M76.5839701,12.3066637 C76.6113177,13.6310404 77.8171898,14.6864843 79.2735757,14.662296 C80.7263497,14.6373274 81.8842345,13.5381883 81.857403,12.2179731 C81.8305714,10.8935964 80.6270213,9.8347713 79.1739893,9.86078027 C77.7168294,9.88340807 76.5553326,10.9833274 76.5839701,12.3066637 L76.5839701,12.3066637 Z M75.9547186,16.7284484 L77.07829,34.0251928 L81.4438358,33.8509327 L81.7095714,16.7281883 L75.9547186,16.7284484 L75.9547186,16.7284484 Z M57.3096247,16.7284484 L57.7587953,40.5201525 L62.1761983,40.7602152 L62.619435,32.8748161 C-4.1021322,-7.02242152 63.5587974,33.4847265 64.0776269,33.677713 C64.9078571,33.9947623 65.8565075,34.1476951 66.9253838,34.1279283 L66.9653731,34.1279283 C67.3807463,34.1201256 67.823209,34.0743498 68.4073113,33.967713 L68.5417271,33.9398834 C69.3686034,33.7632825 70.0881535,33.471722 70.6771578,33.0784664 C71.6964989,32.3985919 72.5104755,31.4146726 73.0298209,30.2320448 C73.4570618,29.2795964 73.7018998,28.1932018 73.8014861,26.8019821 C73.8794009,25.5158386 73.81,24.3800269 73.5919936,23.3251031 C73.3182601,22.0116502 72.7986567,20.8870224 72.0465991,19.9855516 C71.1897953,18.9306278 69.9550277,18.1781883 68.5734606,17.8666009 C67.1911194,17.5617758 65.7744648,17.5823229 64.4522367,17.9214798 C63.7123049,18.1053632 63.0097825,18.438278 62.3828529,18.8996771 C62.2899744,18.5420538 62.1563326,16.7664215 62.1563326,16.7664215 L57.3096247,16.7284484 L57.3096247,16.7284484 Z M39.083,40.7157399 L43.7024136,40.7157399 L44.104371,32.6347534 C44.103855,32.6344933 45.0937846,33.294861 45.6471855,33.5005919 C46.4781898,33.8181614 47.4224542,33.9661525 48.4910725,33.950287 L48.5300299,33.950287 C48.944629,33.9437848 49.3891557,33.8948879 49.973258,33.7866906 L50.1063838,33.7601614 C50.9353241,33.5853812 51.6541002,33.294861 52.2454264,32.8987444 C53.2632196,32.2214709 54.0759062,31.2362511 54.5980896,30.0538834 C55.0230085,29.0975336 55.2686205,28.0072377 55.3710448,26.6233004 C55.4437996,25.3389776 55.3754307,24.2031659 55.1574243,23.1435605 C54.8800789,21.8272466 54.3620235,20.7044395 53.6156418,19.8055695 C52.754452,18.751426 51.5222644,17.9989865 50.1373433,17.6863587 C48.7550021,17.3810135 47.3409275,17.4033812 46.0174094,17.7404574 C45.2805736,17.9251211 44.5752132,18.2585561 43.9493156,18.7212556 C43.8556631,18.3605112 43.6570064,16.7287085 43.6570064,16.7287085 L39.5393945,16.7778655 L39.083,40.7157399 L39.083,40.7157399 Z M31.1227996,12.5334619 C31.1501471,13.9824215 32.4708273,15.1374798 34.0575011,15.111991 C35.6501087,15.082861 36.9184158,13.8815067 36.8884883,12.432287 C36.8572708,10.9872287 35.5394286,9.83139013 33.9478529,9.85973991 C32.3596311,9.88730942 31.0913241,11.0858027 31.1227996,12.5334619 L31.1227996,12.5334619 Z M20.1535949,38.596009 C21.0447122,37.4435516 22.2707079,34.3159731 22.2707079,34.3159731 L29.6385501,16.9190942 L23.1398955,16.9211749 C23.1398955,16.9216443 20.2540141,25.6485986 19.9095309,26.7793543 C18.6572196,24.2741704 15.2176205,17.3479821 15.2176205,17.3479821 L9.39410898,17.6369089 C9.39410898,17.6369089 17.1531349,32.2237069 17.2661066,32.4989865 C16.4665778,38.1993722 11.1467058,36.1524664 11.1467058,36.1524664 L11.1975309,40.6897309 C11.1975309,40.6897309 16.8553774,42.8625202 20.1535949,38.596009 Z" id="Shape" sketch:type="MSShapeGroup"></path>
            </g>
        </g>
    </g>
</svg>

<svg width="121" height="58" viewBox="0 0 121 58" xmlns="http://www.w3.org/2000/svg">
  <path d="M96.22 23.3l-6.9.9c-.19-2.54 1.55-3.91 3.43-3.95 1.88-.03 3.43 1.33 3.47 3.05zm-45.83-.6c-.3-.42-.65-.84-1.11-1.17a3.26 3.26 0 0 0-1.67-.58 3.12 3.12 0 0 0-2.87 1.78 6.39 6.39 0 0 0-.56 2.96c.03.98.15 2 .67 2.95.47.95 1.6 1.78 2.94 1.77.65 0 1.3-.21 1.8-.55.5-.35.9-.78 1.2-1.25.6-.94.76-2.04.64-3.04-.12-1.03-.46-2-1.04-2.86zm18.07.19c-.29-.43-.64-.84-1.1-1.17a3.23 3.23 0 0 0-1.68-.58 3.12 3.12 0 0 0-2.87 1.77 6.36 6.36 0 0 0-.55 2.96c.02.98.15 2 .66 2.95.48.95 1.6 1.79 2.95 1.78.65-.01 1.3-.22 1.8-.56.5-.34.9-.78 1.19-1.25.6-.94.77-2.03.64-3.04-.11-1.03-.46-2-1.04-2.86zM14.86 45.1l-11.9.08L.09 8.97 119.6.1l1.2 44.32-85.57.55-16.66 12.99-3.72-12.87zm20.7-10.85l.65-17.33-4.66.04V34.2l4.01.05zm74.48-3.01c-.03-1.61-1.5-2.9-3.27-2.87-1.78.03-3.2 1.37-3.16 2.98.03 1.62 1.5 2.9 3.28 2.88 1.77-.04 3.18-1.38 3.15-3zm-6.85-20.5l1.32 16.18 3.63-.25 1.53-16.81-6.48.88zM85.24 29.73a7.07 7.07 0 0 0 3.24 3.62c.83.46 1.8.76 2.95.92l.28.04c.6.07 1.15.1 1.65.09h.06a18.14 18.14 0 0 0 2.86-.25c.9-.15 1.82-.43 2.81-.87l.28-.14-.02-3.63-.82.34c-1 .4-2 .69-2.94.83-1.12.16-2.16.18-3.01.06a3.32 3.32 0 0 1-2.15-1.23 3.82 3.82 0 0 1-.56-1.74l10.75-1.7c0-.27-.02-1.97-.05-2.5a7.97 7.97 0 0 0-.54-2.45 6.81 6.81 0 0 0-3.77-3.76 9.92 9.92 0 0 0-5.39-.46 7.54 7.54 0 0 0-4.6 2.6 7.85 7.85 0 0 0-1.7 4.52c-.11 1.77.12 4.38.67 5.7zM76.58 12.3c.03 1.32 1.24 2.38 2.7 2.35 1.45-.02 2.6-1.12 2.58-2.44-.03-1.33-1.23-2.39-2.69-2.36-1.45.02-2.61 1.12-2.59 2.45zm-.63 4.42l1.13 17.3 4.36-.18.27-17.12h-5.76zm-18.64 0l.45 23.79 4.42.24.44-7.89c-66.72-39.9.94.61 1.46.8.83.32 1.78.48 2.85.46h.04c.41-.01.85-.06 1.44-.16l.13-.03a6.14 6.14 0 0 0 4.49-3.7c.43-.96.67-2.05.77-3.44.08-1.28.01-2.42-.2-3.47a7.54 7.54 0 0 0-1.55-3.34 6.25 6.25 0 0 0-3.48-2.12 8.9 8.9 0 0 0-4.12.05 5.9 5.9 0 0 0-2.07.98c-.09-.36-.22-2.13-.22-2.13l-4.85-.04zM39.08 40.72h4.62l.4-8.09s1 .66 1.55.87a7.6 7.6 0 0 0 2.84.45h.04c.41 0 .86-.06 1.44-.16l.14-.03a6.07 6.07 0 0 0 4.49-3.7c.42-.96.67-2.05.77-3.44.07-1.28 0-2.42-.21-3.48a7.6 7.6 0 0 0-1.54-3.33 6.27 6.27 0 0 0-3.48-2.12 8.92 8.92 0 0 0-4.12.05 5.9 5.9 0 0 0-2.07.98c-.1-.36-.3-2-.3-2l-4.11.06-.46 23.94zm-7.96-28.19c.03 1.45 1.35 2.6 2.94 2.58 1.59-.03 2.86-1.23 2.83-2.68-.03-1.44-1.35-2.6-2.94-2.57-1.59.03-2.86 1.23-2.83 2.67zM20.15 38.6c.9-1.16 2.12-4.28 2.12-4.28l7.37-17.4h-6.5s-2.89 8.73-3.23 9.86l-4.7-9.43-5.82.29s7.76 14.58 7.88 14.86c-.8 5.7-6.12 3.65-6.12 3.65l.05 4.54s5.66 2.17 8.95-2.1z" fill="#FFF" fill-rule="evenodd"/>
</svg>
